example/images/golden-gate.svg

<svg xmlns="http://www.w3.org/2000/svg" xmlns:xlink="http://www.w3.org/1999/xlink" width="897.13" height="619.94" viewBox="0 0 897.13 619.94"><defs><linearGradient id="a" x1="212.02" y1="94.83" x2="212.02" gradientUnits="userSpaceOnUse"><stop offset="0" stop-color="#808080" stop-opacity=".25"/><stop offset=".54" stop-color="#808080" stop-opacity=".12"/><stop offset="1" stop-color="#808080" stop-opacity=".1"/></linearGradient><linearGradient id="b" x1="789.57" y1="413" x2="789.57" y2="198.23" xlink:href="#a"/><linearGradient id="c" x1="789.57" y1="209.53" x2="789.57" y2="94.44" xlink:href="#a"/><linearGradient id="d" x1="789.57" y1="110.88" x2="789.57" y2="41" xlink:href="#a"/><linearGradient id="e" x1="107.57" y1="413" x2="107.57" y2="198.23" xlink:href="#a"/><linearGradient id="f" x1="107.57" y1="209.53" x2="107.57" y2="94.44" xlink:href="#a"/><linearGradient id="g" x1="107.57" y1="110.88" x2="107.57" y2="41" xlink:href="#a"/><linearGradient id="h" x1="449.07" y1="320" x2="449.07" y2="292" xlink:href="#a"/><linearGradient id="i" x1="697.59" y1="571.53" x2="822.41" y2="571.53" xlink:href="#a"/><linearGradient id="j" x1="548.07" y1="571" x2="548.07" y2="527" xlink:href="#a"/><linearGradient id="k" x1="710.5" y1="732.03" x2="710.5" y2="680.03" xlink:href="#a"/><linearGradient id="l" x1="660.33" y1="668.03" x2="660.33" y2="497.03" xlink:href="#a"/><linearGradient id="m" x1="557.79" y1="348.81" x2="557.79" y2="339.64" xlink:href="#a"/></defs><title>Golden Gate Bridge</title><path d="M291.07 409.37s22-7.57 38 0 42 2.52 50-1.51 44 1.51 48 5.55 20 9.09 31 5 33-13.13 42-7.57" fill="#2196f3"/><path d="M291.07 409.37s22-7.57 38 0 42 2.52 50-1.51 44 1.51 48 5.55 20 9.09 31 5 33-13.13 42-7.57" opacity=".2"/><path d="M212.07 349.97s50.42-15 87.09 0 96.26 5 114.59-3 100.84 3 110 11 45.84 18 71 10 75.63-26 96.26-15" fill="#2196f3"/><path d="M212.07 349.97s50.42-15 87.09 0 96.26 5 114.59-3 100.84 3 110 11 45.84 18 71 10 75.63-26 96.26-15" opacity=".2"/><ellipse cx="212.02" cy="47.41" rx="48.05" ry="47.41" fill="url(#a)"/><circle cx="212.02" cy="47.41" r="41.88" fill="#ff9800" stroke="#ff5252" stroke-miterlimit="10"/><path fill="url(#b)" d="M771.07 198.23h37v214.77h-37z"/><path fill="url(#c)" d="M779.6 94.44h19.92v115.09h-19.92z"/><path fill="url(#d)" d="M785.3 41h8.54v69.88h-8.54z"/><path fill="url(#e)" d="M89.07 198.23h37v214.77h-37z"/><path fill="url(#f)" d="M97.6 94.44h19.92v115.09h-19.92z"/><path fill="url(#g)" d="M103.3 41h8.54v69.88h-8.54z"/><path fill="url(#h)" d="M6.07 292h886v28h-886z"/><path fill="#ff5252" d="M9.07 296h879v17h-879zm0 17h879v3h-879z"/><path opacity=".2" d="M9.07 313h879v3h-879z"/><path fill="#ff5252" d="M94.57 198.5h26v209h-26zm6-101h14v112h-14zm4-52h6v68h-6zm698 362h-26v-209h26zm-20-310h14v112h-14zm4-52h6v68h-6z"/><path d="M897.07 139.97s-61-4-107.5-86.5c-351 476-682 0-682 0-46.5 82.5-107.5 86.5-107.5 86.5" stroke="#ff5252" stroke-miterlimit="10" stroke-width="2" fill="none"/><path stroke="#ff5252" stroke-miterlimit="10" d="M20.96 134.71v161.29m31.42-178.35v178.35m360.72-34.21v34.21m71.97-30.94v30.94m-144.65-53.89v53.89m-69.5-89.18v89.18m-71.22-142.5v142.5m358.1-49v49m74.32-86.5v86m70.28-142v142.5m-540.35-178.35v178.35m575.31-178.35v178.35m138.82-161.29v161.29m-31.43-178.35v178.35m-608.84-113.14v112.64m71.48-68.15v68.65m63.48-43.5v43m77.7-30.44v30.94m75.52-38.9v38.9m69.72-64.5v64.5m70.2-109.34v108.84" fill="none"/><path opacity=".2" d="M101.07 197h13v2h-13zm4-101h5v2h-5zm678 100h13v2h-13zm4-100h5v2h-5z"/><path d="M546.16 525.97v-190s57.91 143 124.82 191z" fill="url(#i)"/><path d="M548.07 522.97v-184s46 153 118 185z" fill="#f5f5f5"/><path d="M551.07 522.97v-174.68c-2-5.88-3-9.29-3-9.29v183.97l118 1h-.05z" fill="#ff5252" opacity=".2"/><rect x="500.07" y="527" width="96" height="44" rx="19" ry="19" fill="url(#j)"/><rect x="502.07" y="530" width="92" height="38" rx="19" ry="19" fill="#64ffda"/><path d="M659.5 694a19.06 19.06 0 0 1 19-19h54a18.82 18.82 0 0 1 8.86 2.22 19 19 0 0 0-14.86-7.22h-54a19.06 19.06 0 0 0-19 19 19 19 0 0 0 10.14 16.78 18.88 18.88 0 0 1-4.14-11.78z" transform="translate(-151.43 -140.03)" fill="#ff5252" opacity=".2"/><path d="M562.5 680l35.85 52h260.15l-31.78-42.46a22.83 22.83 0 0 0-18.21-9.54z" transform="translate(-151.43 -140.03)" fill="url(#k)"/><path d="M564.5 683l35 45h254l-31-36.74a23.27 23.27 0 0 0-17.81-8.26z" transform="translate(-151.43 -140.03)" fill="#6c63ff"/><path d="M446.13 527.97s-13.63-146.84 125.89-171c0 0-66.09 93.37-24.13 171z" fill="url(#l)"/><path d="M449.07 523.97s-13-140 120-163c0 0-63 89-23 163z" fill="#6c63ff"/><path fill="url(#m)" d="M546.51 339.64l22.56 4.31-21.89 4.86-.67-9.17z"/><path fill="#ff5252" d="M548.51 340.45l18.56 3.55-18 4-.56-7.55z"/><path d="M564.83 367.54c2.59-4.21 4.24-6.54 4.24-6.54-133 23-120 163-120 163h7.77c-.88-22.16.49-130.27 107.99-156.46z" fill="#ff5252" opacity=".2"/><path d="M807.69 687a23.27 23.27 0 0 1 17.78 8.26l27.65 32.74h.38l-31-36.74a23.27 23.27 0 0 0-17.81-8.26h-240.19l3.11 4z" transform="translate(-151.43 -140.03)" fill="#ff5252" opacity=".2"/><path d="M211.07 446.37s9.05-7.57 15.64 0 17.28 2.52 20.57-1.51 18.11 1.51 19.75 5.55 8.23 9.09 12.76 5 13.58-13.13 17.28-7.57" fill="#2196f3"/><path d="M211.07 446.37s9.05-7.57 15.64 0 17.28 2.52 20.57-1.51 18.11 1.51 19.75 5.55 8.23 9.09 12.76 5 13.58-13.13 17.28-7.57" opacity=".2"/><path d="M106.07 522.37s31.26-7.57 54 0 59.68 2.52 71.05-1.51 62.53 1.51 68.21 5.55 28.42 9.09 44.05 5 46.89-13.13 59.68-7.57m-389.99 71.77s31.26-8.12 54 0 59.68 2.71 71.05-1.62 62.53 1.62 68.21 6 28.42 9.74 44.05 5.41 46.89-14.07 59.68-8.12m41.01 12.09s13.16-7.57 22.73 0 25.12 2.52 29.9-1.51 26.32 1.51 28.71 5.55 12 9.09 18.54 5 19.74-13.13 25.12-7.57m237-36.47s13.16-7.57 22.73 0 25.12 2.52 29.9-1.51 26.32 1.51 28.71 5.55 12 9.09 18.54 5 19.74-13.13 25.12-7.57m-204-108.47s16.63-7.57 28.73 0 31.75 2.52 37.8-1.51 33.26 1.51 36.29 5.55 15.12 9.09 23.44 5 24.95-13.13 31.75-7.57" fill="#2196f3"/><path d="M634.07 467.37s16.63-7.57 28.73 0 31.75 2.52 37.8-1.51 33.26 1.51 36.29 5.55 15.12 9.09 23.44 5 24.95-13.13 31.75-7.57" opacity=".2"/></svg>

<svg xmlns="http://www.w3.org/2000/svg" xmlns:xlink="http://www.w3.org/1999/xlink" width="897.13" height="619.94" viewBox="0 0 897.13 619.94"><defs><linearGradient id="a" x1="212.02" y1="94.83" x2="212.02" gradientUnits="userSpaceOnUse"><stop offset="0" stop-color="#808080" stop-opacity=".25"/><stop offset=".54" stop-color="#808080" stop-opacity=".12"/><stop offset="1" stop-color="#808080" stop-opacity=".1"/></linearGradient><linearGradient id="b" x1="789.57" y1="413" x2="789.57" y2="198.23" xlink:href="#a"/><linearGradient id="c" x1="789.57" y1="209.53" x2="789.57" y2="94.44" xlink:href="#a"/><linearGradient id="d" x1="789.57" y1="110.88" x2="789.57" y2="41" xlink:href="#a"/><linearGradient id="e" x1="107.57" y1="413" x2="107.57" y2="198.23" xlink:href="#a"/><linearGradient id="f" x1="107.57" y1="209.53" x2="107.57" y2="94.44" xlink:href="#a"/><linearGradient id="g" x1="107.57" y1="110.88" x2="107.57" y2="41" xlink:href="#a"/><linearGradient id="h" x1="449.07" y1="320" x2="449.07" y2="292" xlink:href="#a"/><linearGradient id="i" x1="697.59" y1="571.53" x2="822.41" y2="571.53" xlink:href="#a"/><linearGradient id="j" x1="548.07" y1="571" x2="548.07" y2="527" xlink:href="#a"/><linearGradient id="k" x1="710.5" y1="732.03" x2="710.5" y2="680.03" xlink:href="#a"/><linearGradient id="l" x1="660.33" y1="668.03" x2="660.33" y2="497.03" xlink:href="#a"/><linearGradient id="m" x1="557.79" y1="348.81" x2="557.79" y2="339.64" xlink:href="#a"/></defs><title>Golden Gate Bridge</title><path d="M291.07 409.37s22-7.57 38 0 42 2.52 50-1.51 44 1.51 48 5.55 20 9.09 31 5 33-13.13 42-7.57" fill="#2196f3"/><path d="M291.07 409.37s22-7.57 38 0 42 2.52 50-1.51 44 1.51 48 5.55 20 9.09 31 5 33-13.13 42-7.57" opacity=".2"/><path d="M212.07 349.97s50.42-15 87.09 0 96.26 5 114.59-3 100.84 3 110 11 45.84 18 71 10 75.63-26 96.26-15" fill="#2196f3"/><path d="M212.07 349.97s50.42-15 87.09 0 96.26 5 114.59-3 100.84 3 110 11 45.84 18 71 10 75.63-26 96.26-15" opacity=".2"/><ellipse cx="212.02" cy="47.41" rx="48.05" ry="47.41" fill="url(#a)"/><circle cx="212.02" cy="47.41" r="41.88" fill="#ff9800" stroke="#ff5252" stroke-miterlimit="10"/><path fill="url(#b)" d="M771.07 198.23h37v214.77h-37z"/><path fill="url(#c)" d="M779.6 94.44h19.92v115.09h-19.92z"/><path fill="url(#d)" d="M785.3 41h8.54v69.88h-8.54z"/><path fill="url(#e)" d="M89.07 198.23h37v214.77h-37z"/><path fill="url(#f)" d="M97.6 94.44h19.92v115.09h-19.92z"/><path fill="url(#g)" d="M103.3 41h8.54v69.88h-8.54z"/><path fill="url(#h)" d="M6.07 292h886v28h-886z"/><path fill="#ff5252" d="M9.07 296h879v17h-879zM9.07 313h879v3h-879z"/><path opacity=".2" d="M9.07 313h879v3h-879z"/><path fill="#ff5252" d="M94.57 198.5h26v209h-26zM100.57 97.5h14v112h-14zM104.57 45.5h6v68h-6zM802.57 407.5h-26v-209h26zM782.57 97.5h14v112h-14zM786.57 45.5h6v68h-6z"/><path d="M897.07 139.97s-61-4-107.5-86.5c-351 476-682 0-682 0-46.5 82.5-107.5 86.5-107.5 86.5" stroke="#ff5252" stroke-miterlimit="10" stroke-width="2" fill="none"/><path stroke="#ff5252" stroke-miterlimit="10" fill="none" d="M20.96 134.71v161.29M52.38 117.65v178.35M413.1 261.79v34.21M485.07 265.06v30.94M340.42 242.11v53.89M270.92 206.82v89.18M199.7 153.5v142.5M557.8 247v49M632.12 209.5v86M702.4 153.5v142.5M162.05 117.65v178.35M737.36 117.65v178.35M876.18 134.71v161.29M844.75 117.65v178.35M235.91 182.86v112.64M307.39 227.35v68.65M370.87 252.5v43M448.57 265.06v30.94M524.09 257.1v38.9M593.81 231.5v64.5M664.01 186.66v108.84"/><path opacity=".2" d="M101.07 197h13v2h-13zM105.07 96h5v2h-5zM783.07 196h13v2h-13zM787.07 96h5v2h-5z"/><path d="M546.16 525.97v-190s57.91 143 124.82 191z" fill="url(#i)"/><path d="M548.07 522.97v-184s46 153 118 185z" fill="#f5f5f5"/><path d="M551.07 522.97v-174.68c-2-5.88-3-9.29-3-9.29v183.97l118 1h-.05z" fill="#ff5252" opacity=".2"/><rect x="500.07" y="527" width="96" height="44" rx="19" ry="19" fill="url(#j)"/><rect x="502.07" y="530" width="92" height="38" rx="19" ry="19" fill="#64ffda"/><path d="M659.5 694a19.06 19.06 0 0 1 19-19h54a18.82 18.82 0 0 1 8.86 2.22 19 19 0 0 0-14.86-7.22h-54a19.06 19.06 0 0 0-19 19 19 19 0 0 0 10.14 16.78 18.88 18.88 0 0 1-4.14-11.78z" transform="translate(-151.43 -140.03)" fill="#ff5252" opacity=".2"/><path d="M562.5 680l35.85 52h260.15l-31.78-42.46a22.83 22.83 0 0 0-18.21-9.54z" transform="translate(-151.43 -140.03)" fill="url(#k)"/><path d="M564.5 683l35 45h254l-31-36.74a23.27 23.27 0 0 0-17.81-8.26z" transform="translate(-151.43 -140.03)" fill="#6c63ff"/><path d="M446.13 527.97s-13.63-146.84 125.89-171c0 0-66.09 93.37-24.13 171z" fill="url(#l)"/><path d="M449.07 523.97s-13-140 120-163c0 0-63 89-23 163z" fill="#6c63ff"/><path fill="url(#m)" d="M546.51 339.64l22.56 4.31-21.89 4.86-.67-9.17z"/><path fill="#ff5252" d="M548.51 340.45l18.56 3.55-18 4-.56-7.55z"/><path d="M564.83 367.54c2.59-4.21 4.24-6.54 4.24-6.54-133 23-120 163-120 163h7.77c-.88-22.16.49-130.27 107.99-156.46z" fill="#ff5252" opacity=".2"/><path d="M807.69 687a23.27 23.27 0 0 1 17.78 8.26l27.65 32.74h.38l-31-36.74a23.27 23.27 0 0 0-17.81-8.26h-240.19l3.11 4z" transform="translate(-151.43 -140.03)" fill="#ff5252" opacity=".2"/><path d="M211.07 446.37s9.05-7.57 15.64 0 17.28 2.52 20.57-1.51 18.11 1.51 19.75 5.55 8.23 9.09 12.76 5 13.58-13.13 17.28-7.57" fill="#2196f3"/><path d="M211.07 446.37s9.05-7.57 15.64 0 17.28 2.52 20.57-1.51 18.11 1.51 19.75 5.55 8.23 9.09 12.76 5 13.58-13.13 17.28-7.57" opacity=".2"/><path d="M106.07 522.37s31.26-7.57 54 0 59.68 2.52 71.05-1.51 62.53 1.51 68.21 5.55 28.42 9.09 44.05 5 46.89-13.13 59.68-7.57M13.07 595.61s31.26-8.12 54 0 59.68 2.71 71.05-1.62 62.53 1.62 68.21 6 28.42 9.74 44.05 5.41 46.89-14.07 59.68-8.12M351.07 609.37s13.16-7.57 22.73 0 25.12 2.52 29.9-1.51 26.32 1.51 28.71 5.55 12 9.09 18.54 5 19.74-13.13 25.12-7.57M713.07 574.37s13.16-7.57 22.73 0 25.12 2.52 29.9-1.51 26.32 1.51 28.71 5.55 12 9.09 18.54 5 19.74-13.13 25.12-7.57M634.07 467.37s16.63-7.57 28.73 0 31.75 2.52 37.8-1.51 33.26 1.51 36.29 5.55 15.12 9.09 23.44 5 24.95-13.13 31.75-7.57" fill="#2196f3"/><path d="M634.07 467.37s16.63-7.57 28.73 0 31.75 2.52 37.8-1.51 33.26 1.51 36.29 5.55 15.12 9.09 23.44 5 24.95-13.13 31.75-7.57" opacity=".2"/></svg>
